X:233
T:Cedar Hill
C:David Grisman
N:TablEdited by Kim Davis
L:1/8
Q:1/4=250
M:4/4
K:G
z6 DE |: GA "Transcribed by M""G"Bd BA GA | Bd BG z2 GB | "Am"AB ce cB AB | ce cB cB Ac | 
|1 d"D7"e fa fe de | fa fe dc BA | "G"GA Bd "Em"BA GB | "Am"AF De "D7"d4 :|2 de "D7"fa fe df | 
ed BA dc BA | "G"GB AG ED EG | z8 | "Dm"DE =FA FE DE | "D"FA FE DE DA, | "C"G,A, CE DE Gc | 
Ac dg ea ed | "Am"cA Bc zB cA | "A"^cA Bc zB cA | "D7"de fa fe df | "D7"ed BA dc BA | 
de fa fe df | ed BA dc Bd | cB Ac (3BcB FD | "G"G6 DE |: GA "G"Bd BA GA | Bd BG z2 GB | 
"Am"AB ce cB AB | ce cB cB Ac |1 d"D7"e fa fe de | fa fe dc BA | "G"GA Bd "Em"BA GB | 
"Am"AF De "D7"d4 :|2 de "D7"fa fe df | ed BA dc BA | "G"GB AG ED EG | z8 | "Dm"DE =FA FE DE | 
"D"FA FE DE DA, | "C"G,A, CE DE Gc | Ac dg ea ed | "Am"cA Bc zB cA | "A"^cA Bc zB cA | 
"D7"de fa fe df | "D7"ed BA dc BA | de fa fe df | ed BA dc Bd | cB Ac (3BcB FD | 
G8 | de "D"fa fe de | fa fe d2 d2 | "E"e2 ^gb ge z2 | ^gb ge z2 e2 | "A"^c'b c'e c'b c'e | 
^c'b c'e c'b ae | "D"df ed B2 df | ed B2 df ed | "E"^gf e^c B2 gf | e^c B2 ^gf eg | 
"A"af ed ^cB Ac | BA ^GF ED ^CB, | A,B, ^CE FE CE | AE ^CE FE CE | "D"DE FA BA FA | 
dA ^cA BA FA | "E"EF ^GB ^cB GB | eB ^GB ^cB GB | eB ^GB ^cB GB | "A"A2 e2 f2 g2 | 
"E"^gf e^c B2 gf | e^c B2 ^gf ec | (3B^cB ^Gc BG FG | "A"A4 [a4^c4E4A,4] | 
 

